X:106
T:Land-O-Lakes Reel
R:reel
C:Bruce Osborne - Oct.2002
Z:abc by bosborne @kos.net
M:2/4
L:1/8
K:Cmaj
G/F/|E/C/B,/C/ G,/C/B,/C/|E/C/E/F/ GD/E/|F/D/B,/D/ G,/D/B,/D/|C/B,/C/D/ EG/F/|\
E/C/B,/C/ G,/C/B,/C/|E/C/E/F/ GD/E/|F/D/B,/D/ G,/D/B,/D/|C/B,/E/D/ C:|
|:E/F/|G/c/B/c/ e/c/B/c/|G/c/e/a/ gd/e/|f/d/B/d/ G/d/B/d/|c/B/c/d/ eE/F/|\
G/c/B/c/ e/c/B/c/|G/c/e/a/ gd/e/|f/d/B/d/ G/d/B/d/|c/B/e/d/ c:|
